X: 520
T: Aaron's Key
R: jig
M: 6/8
K: Bminor
|:F2B Bcd|cAA ABc|dBB Bcd|edc BAG|
FBB Bcd|cAA ABc|dcd ede|fdB B2A:|
|:d2c def|ecA a2g|~f3 fed|cde ABc|
BFB cBc|dcd ede|fed cBA|1 ~B3 B2c:|2 ~B3 B2A||

